src/svgs/emojis/noticeable-acne-emoji.svg

<svg viewBox="0 0 48 48" xmlns="http://www.w3.org/2000/svg" xmlns:xlink="http://www.w3.org/1999/xlink">
    <title>Noticeable Acne Emoji</title>
    <g stroke="none" stroke-width="1" fill="none" fill-rule="evenodd">
    <circle id="Oval-8" stroke="#332E54" stroke-width="2" cx="24" cy="24" r="23"/>
        <path d="M34.0654475,22.4557147 C33.2285749,22.9908517 32.9836366,24.1028361 33.519661,24.9397086 C34.054798,25.7756937 35.1658949,26.020632 36.0036549,25.4854951 C36.83964,24.9503581 37.0836908,23.8383737 36.5494414,23.0015012 C36.0134169,22.1646286 34.9014325,21.9205778 34.0654475,22.4557147" id="Fill-1" fill="#332E54"/>
        <path d="M13.7293559,22.4557147 C12.8933708,21.9205778 11.780499,22.1646286 11.245362,23.0015012 C10.7111125,23.8383737 10.9551634,24.9503581 11.790261,25.4854951 C12.628021,26.020632 13.7400054,25.7756937 14.2742549,24.9397086 C14.8102793,24.1028361 14.565341,22.9908517 13.7293559,22.4557147" id="Fill-3" fill="#332E54"/>
        <path d="M23.8978454,26.6066203 C22.0412841,26.6066203 20.3604393,27.2455898 19.3993227,28.3158637 C19.1526095,28.5892006 19.1756834,29.0098555 19.4490203,29.2556813 C19.5768142,29.3692759 19.7356692,29.4260732 19.8936366,29.4260732 C20.0755654,29.4260732 20.2574942,29.3515267 20.388838,29.2050962 C21.0908169,28.423246 22.4362027,27.9378067 23.8978454,27.9378067 C25.3586007,27.9378067 26.703099,28.423246 27.4059654,29.2042087 C27.6517912,29.4775457 28.0724461,29.4997321 28.3466705,29.2539064 C28.61912,29.0089681 28.6421939,28.5874257 28.3954807,28.3140887 C27.4334766,27.2447023 25.7526319,26.6066203 23.8978454,26.6066203" id="Fill-8" fill="#332E54"/>
        <circle id="Oval-Copy-7" fill="#EFD4C7" cx="23.6571429" cy="37.8171429" r="1"/>
        <ellipse id="Oval" fill="#EFD4C7" cx="38.2" cy="30.24" rx="1.4" ry="1.44"/>
        <ellipse id="Oval-Copy-16" fill="#EFD4C7" cx="9.8" cy="30.24" rx="1.4" ry="1.44"/>
    </g>
</svg>

<svg xmlns="http://www.w3.org/2000/svg" viewBox="0 0 48 48">
    <title>Noticeable Acne Emoji</title>
    <g fill="none">
        <circle cx="24" cy="24" r="23" stroke="#332E54" stroke-width="2"/>
        <path fill="#332E54"
              d="M34.07 22.46c-.84.53-1.1 1.64-.55 2.48.53.84 1.65 1.08 2.48.55.84-.55 1.08-1.66.55-2.5-.54-.84-1.65-1.08-2.48-.54"/>
        <path fill="#332E54"
              d="M13.73 22.46c-.84-.54-1.95-.3-2.48.54-.54.84-.3 1.95.54 2.5.83.52 1.94.28 2.47-.56.54-.84.3-1.95-.54-2.48"/>
        <path fill="#332E54"
              d="M23.9 26.6c-1.86 0-3.54.65-4.5 1.72-.25.27-.22.7.05.94.13.1.3.17.44.17.18 0 .36-.08.5-.22.7-.78 2.04-1.26 3.5-1.26s2.8.48 3.5 1.26c.25.28.67.3.95.05.27-.24.3-.66.05-.94-.97-1.06-2.65-1.7-4.5-1.7"/>
        <circle cx="23.657" cy="37.817" r="1" fill="#EFD4C7"/>
        <ellipse cx="38.2" cy="30.24" fill="#EFD4C7" rx="1.4" ry="1.44"/>
        <ellipse cx="9.8" cy="30.24" fill="#EFD4C7" rx="1.4" ry="1.44"/>
    </g>
</svg>
